imagery/icons/ActionDelete.svg

<?xml version="1.0" encoding="UTF-8" standalone="no"?>
<!-- Created with Inkscape (http://www.inkscape.org/) -->
<svg
   xmlns:dc="http://purl.org/dc/elements/1.1/"
   xmlns:cc="http://creativecommons.org/ns#"
   xmlns:rdf="http://www.w3.org/1999/02/22-rdf-syntax-ns#"
   xmlns:svg="http://www.w3.org/2000/svg"
   xmlns="http://www.w3.org/2000/svg"
   xmlns:xlink="http://www.w3.org/1999/xlink"
   xmlns:sodipodi="http://sodipodi.sourceforge.net/DTD/sodipodi-0.dtd"
   xmlns:inkscape="http://www.inkscape.org/namespaces/inkscape"
   width="80"
   height="79.999985"
   id="svg2"
   sodipodi:version="0.32"
   inkscape:version="0.46"
   sodipodi:docname="ActionDelete.svg"
   inkscape:output_extension="org.inkscape.output.svg.inkscape"
   inkscape:export-filename="/home/kaa-ching/Programming/tbe/svn/images/icons/ActionMove.png"
   inkscape:export-xdpi="67.599411"
   inkscape:export-ydpi="67.599411"
   version="1.0">
  <defs
     id="defs4">
    <linearGradient
       id="linearGradient3195">
      <stop
         style="stop-color:#949494;stop-opacity:0.83137256;"
         offset="0"
         id="stop3197" />
      <stop
         style="stop-color:#ebebeb;stop-opacity:0.83137256;"
         offset="1"
         id="stop3199" />
    </linearGradient>
    <linearGradient
       id="linearGradient3187">
      <stop
         style="stop-color:#494949;stop-opacity:1;"
         offset="0"
         id="stop3189" />
      <stop
         style="stop-color:#e6e6e6;stop-opacity:1;"
         offset="1"
         id="stop3191" />
    </linearGradient>
    <linearGradient
       id="linearGradient3222">
      <stop
         style="stop-color:#ce0000;stop-opacity:1;"
         offset="0"
         id="stop3224" />
      <stop
         style="stop-color:#ff7f7f;stop-opacity:1;"
         offset="1"
         id="stop3226" />
    </linearGradient>
    <linearGradient
       id="linearGradient3203">
      <stop
         style="stop-color:#338000;stop-opacity:1;"
         offset="0"
         id="stop3205" />
      <stop
         style="stop-color:#33ff00;stop-opacity:1;"
         offset="1"
         id="stop3207" />
    </linearGradient>
    <inkscape:perspective
       sodipodi:type="inkscape:persp3d"
       inkscape:vp_x="0 : 526.18109 : 1"
       inkscape:vp_y="0 : 1000 : 0"
       inkscape:vp_z="744.09448 : 526.18109 : 1"
       inkscape:persp3d-origin="372.04724 : 350.78739 : 1"
       id="perspective10" />
    <linearGradient
       inkscape:collect="always"
       xlink:href="#linearGradient3203"
       id="linearGradient3209"
       x1="180"
       y1="197.86218"
       x2="217"
       y2="176.86218"
       gradientUnits="userSpaceOnUse"
       gradientTransform="translate(-25.449416,15.973931)" />
    <linearGradient
       inkscape:collect="always"
       xlink:href="#linearGradient3203"
       id="linearGradient3213"
       gradientUnits="userSpaceOnUse"
       x1="180"
       y1="197.86218"
       x2="217"
       y2="176.86218"
       gradientTransform="matrix(-1,0,0,1,420.64724,15.973931)" />
    <linearGradient
       inkscape:collect="always"
       xlink:href="#linearGradient3203"
       id="linearGradient3219"
       gradientUnits="userSpaceOnUse"
       gradientTransform="matrix(0,-1,1,0,10.236731,369.28965)"
       x1="180"
       y1="197.86218"
       x2="217"
       y2="176.86218" />
    <linearGradient
       inkscape:collect="always"
       xlink:href="#linearGradient3203"
       id="linearGradient3221"
       gradientUnits="userSpaceOnUse"
       gradientTransform="matrix(0,1,1,0,10.236714,-27.472495)"
       x1="180"
       y1="197.86218"
       x2="217"
       y2="176.86218" />
    <linearGradient
       inkscape:collect="always"
       xlink:href="#linearGradient3203"
       id="linearGradient3227"
       gradientUnits="userSpaceOnUse"
       gradientTransform="matrix(0,-1,1,0,10.524861,422.97401)"
       x1="180"
       y1="197.86218"
       x2="217"
       y2="176.86218" />
    <linearGradient
       inkscape:collect="always"
       xlink:href="#linearGradient3203"
       id="linearGradient3229"
       gradientUnits="userSpaceOnUse"
       gradientTransform="matrix(0,1,1,0,10.524861,-23.122654)"
       x1="180"
       y1="197.86218"
       x2="217"
       y2="176.86218" />
    <linearGradient
       inkscape:collect="always"
       xlink:href="#linearGradient3203"
       id="linearGradient3243"
       gradientUnits="userSpaceOnUse"
       gradientTransform="translate(-25.449416,15.973931)"
       x1="180"
       y1="197.86218"
       x2="217"
       y2="176.86218" />
    <linearGradient
       inkscape:collect="always"
       xlink:href="#linearGradient3203"
       id="linearGradient3245"
       gradientUnits="userSpaceOnUse"
       gradientTransform="matrix(-1,0,0,1,420.64724,15.973931)"
       x1="180"
       y1="197.86218"
       x2="217"
       y2="176.86218" />
    <linearGradient
       inkscape:collect="always"
       xlink:href="#linearGradient3203"
       id="linearGradient3247"
       gradientUnits="userSpaceOnUse"
       gradientTransform="matrix(0,-1,1,0,10.524861,422.97401)"
       x1="180"
       y1="197.86218"
       x2="217"
       y2="176.86218" />
    <linearGradient
       inkscape:collect="always"
       xlink:href="#linearGradient3203"
       id="linearGradient3249"
       gradientUnits="userSpaceOnUse"
       gradientTransform="matrix(0,1,1,0,10.524861,-23.122654)"
       x1="180"
       y1="197.86218"
       x2="217"
       y2="176.86218" />
    <linearGradient
       inkscape:collect="always"
       xlink:href="#linearGradient3203"
       id="linearGradient3252"
       gradientUnits="userSpaceOnUse"
       gradientTransform="matrix(0,0.8630386,1.0034696,0,9.5866584,6.5641771)"
       x1="217"
       y1="176.86218"
       x2="180"
       y2="197.86218" />
    <linearGradient
       inkscape:collect="always"
       xlink:href="#linearGradient3203"
       id="linearGradient3255"
       gradientUnits="userSpaceOnUse"
       gradientTransform="matrix(0,-0.8630386,1.0034696,0,9.5866584,398.28716)"
       x1="180"
       y1="176.86218"
       x2="217"
       y2="197.86218" />
    <linearGradient
       inkscape:collect="always"
       xlink:href="#linearGradient3203"
       id="linearGradient3258"
       gradientUnits="userSpaceOnUse"
       gradientTransform="matrix(-0.8630386,0,0,1.0034696,390.96039,11.913429)"
       x1="217"
       y1="197.86218"
       x2="180"
       y2="176.86218" />
    <linearGradient
       inkscape:collect="always"
       xlink:href="#linearGradient3203"
       id="linearGradient3261"
       gradientUnits="userSpaceOnUse"
       gradientTransform="matrix(0.8630386,0,0,1.0034696,-0.7625854,11.913429)"
       x1="180"
       y1="197.86218"
       x2="217"
       y2="176.86218" />
    <linearGradient
       inkscape:collect="always"
       xlink:href="#linearGradient3203"
       id="linearGradient3341"
       gradientUnits="userSpaceOnUse"
       gradientTransform="matrix(0.8630386,0,0,1.0034696,-0.7625854,11.913429)"
       x1="180"
       y1="197.86218"
       x2="217"
       y2="176.86218" />
    <linearGradient
       inkscape:collect="always"
       xlink:href="#linearGradient3203"
       id="linearGradient3343"
       gradientUnits="userSpaceOnUse"
       gradientTransform="matrix(-0.8630386,0,0,1.0034696,390.96039,11.913429)"
       x1="217"
       y1="197.86218"
       x2="180"
       y2="176.86218" />
    <linearGradient
       inkscape:collect="always"
       xlink:href="#linearGradient3203"
       id="linearGradient3345"
       gradientUnits="userSpaceOnUse"
       gradientTransform="matrix(0,-0.8630386,1.0034696,0,9.5866584,398.28716)"
       x1="180"
       y1="176.86218"
       x2="217"
       y2="197.86218" />
    <linearGradient
       inkscape:collect="always"
       xlink:href="#linearGradient3203"
       id="linearGradient3347"
       gradientUnits="userSpaceOnUse"
       gradientTransform="matrix(0,0.8630386,1.0034696,0,9.5866584,6.5641771)"
       x1="217"
       y1="176.86218"
       x2="180"
       y2="197.86218" />
    <linearGradient
       inkscape:collect="always"
       xlink:href="#linearGradient3222"
       id="linearGradient3228"
       x1="16.130047"
       y1="83.236122"
       x2="82.05352"
       y2="1.7813295"
       gradientUnits="userSpaceOnUse"
       gradientTransform="matrix(0.7354782,0,0,0.7059264,165.65445,172.14669)" />
    <linearGradient
       inkscape:collect="always"
       xlink:href="#linearGradient3187"
       id="linearGradient3193"
       x1="-17.590294"
       y1="50.914841"
       x2="4.5003381"
       y2="30.625778"
       gradientUnits="userSpaceOnUse" />
    <linearGradient
       inkscape:collect="always"
       xlink:href="#linearGradient3195"
       id="linearGradient3201"
       x1="0.72386533"
       y1="27.263895"
       x2="-21.11245"
       y2="47.627277"
       gradientUnits="userSpaceOnUse" />
  </defs>
  <sodipodi:namedview
     id="base"
     pagecolor="#ffffff"
     bordercolor="#666666"
     borderopacity="1.0"
     gridtolerance="10000"
     guidetolerance="10"
     objecttolerance="10"
     inkscape:pageopacity="0.0"
     inkscape:pageshadow="2"
     inkscape:zoom="5.4058986"
     inkscape:cx="24.016313"
     inkscape:cy="52.535207"
     inkscape:document-units="px"
     inkscape:current-layer="layer1"
     showgrid="false"
     inkscape:window-width="1270"
     inkscape:window-height="783"
     inkscape:window-x="0"
     inkscape:window-y="0" />
  <metadata
     id="metadata7">
    <rdf:RDF>
      <cc:Work
         rdf:about="">
        <dc:format>image/svg+xml</dc:format>
        <dc:type
           rdf:resource="http://purl.org/dc/dcmitype/StillImage" />
      </cc:Work>
    </rdf:RDF>
  </metadata>
  <g
     inkscape:label="Layer 1"
     inkscape:groupmode="layer"
     id="layer1"
     transform="translate(-157.05018,-162.07136)">
    <path
       sodipodi:type="arc"
       style="opacity:1;fill:url(#linearGradient3201);fill-opacity:1;stroke:url(#linearGradient3193);stroke-width:0.61612666000000005;stroke-linecap:butt;stroke-linejoin:round;stroke-miterlimit:4;stroke-dasharray:none;stroke-dashoffset:0;stroke-opacity:1"
       id="path2489"
       sodipodi:cx="-8.3802805"
       sodipodi:cy="39.154922"
       sodipodi:rx="17.112673"
       sodipodi:ry="15.774646"
       d="M 8.7323923,39.154922 A 17.112673,15.774646 0 1 1 -25.492953,39.154922 A 17.112673,15.774646 0 1 1 8.7323923,39.154922 z"
       transform="matrix(2.2944285,0,0,2.489045,216.27813,104.61299)" />
    <path
       style="opacity:1;fill:url(#linearGradient3228);fill-opacity:1;stroke:#000000;stroke-width:1.2;stroke-linecap:butt;stroke-linejoin:round;stroke-miterlimit:4;stroke-dasharray:none;stroke-opacity:1"
       d="M 175.72132,172.6982 L 167.67702,180.72811 L 189.00589,202.06033 L 167.67702,223.41461 L 175.72132,231.44451 L 197.05018,210.1123 L 218.37905,231.44451 L 226.42334,223.41461 L 205.09447,202.06033 L 226.42334,180.72811 L 218.37905,172.6982 L 197.05018,194.03042 L 175.72132,172.6982 z"
       id="rect2426" />
  </g>
</svg>

<?xml version="1.0" encoding="UTF-8" standalone="no"?>
<!-- Created with Inkscape (http://www.inkscape.org/) -->

<svg
   xmlns:dc="http://purl.org/dc/elements/1.1/"
   xmlns:cc="http://creativecommons.org/ns#"
   xmlns:rdf="http://www.w3.org/1999/02/22-rdf-syntax-ns#"
   xmlns:svg="http://www.w3.org/2000/svg"
   xmlns="http://www.w3.org/2000/svg"
   xmlns:xlink="http://www.w3.org/1999/xlink"
   xmlns:sodipodi="http://sodipodi.sourceforge.net/DTD/sodipodi-0.dtd"
   xmlns:inkscape="http://www.inkscape.org/namespaces/inkscape"
   width="59.94627"
   height="59.946259"
   id="svg2"
   sodipodi:version="0.32"
   inkscape:version="0.91 r13725"
   sodipodi:docname="ActionDelete.svg"
   inkscape:output_extension="org.inkscape.output.svg.inkscape"
   inkscape:export-filename="/home/kaa-ching/Programming/tbe/svn/images/icons/ActionMove.png"
   inkscape:export-xdpi="67.599411"
   inkscape:export-ydpi="67.599411"
   version="1.0">
  <defs
     id="defs4">
    <linearGradient
       id="linearGradient3195">
      <stop
         style="stop-color:#949494;stop-opacity:0.83137256;"
         offset="0"
         id="stop3197" />
      <stop
         style="stop-color:#ebebeb;stop-opacity:0.83137256;"
         offset="1"
         id="stop3199" />
    </linearGradient>
    <linearGradient
       id="linearGradient3187">
      <stop
         style="stop-color:#494949;stop-opacity:1;"
         offset="0"
         id="stop3189" />
      <stop
         style="stop-color:#e6e6e6;stop-opacity:1;"
         offset="1"
         id="stop3191" />
    </linearGradient>
    <linearGradient
       id="linearGradient3222">
      <stop
         style="stop-color:#ce0000;stop-opacity:1;"
         offset="0"
         id="stop3224" />
      <stop
         style="stop-color:#ff7f7f;stop-opacity:1;"
         offset="1"
         id="stop3226" />
    </linearGradient>
    <linearGradient
       id="linearGradient3203">
      <stop
         style="stop-color:#338000;stop-opacity:1;"
         offset="0"
         id="stop3205" />
      <stop
         style="stop-color:#33ff00;stop-opacity:1;"
         offset="1"
         id="stop3207" />
    </linearGradient>
    <inkscape:perspective
       sodipodi:type="inkscape:persp3d"
       inkscape:vp_x="0 : 526.18109 : 1"
       inkscape:vp_y="0 : 1000 : 0"
       inkscape:vp_z="744.09448 : 526.18109 : 1"
       inkscape:persp3d-origin="372.04724 : 350.78739 : 1"
       id="perspective10" />
    <linearGradient
       inkscape:collect="always"
       xlink:href="#linearGradient3203"
       id="linearGradient3209"
       x1="180"
       y1="197.86218"
       x2="217"
       y2="176.86218"
       gradientUnits="userSpaceOnUse"
       gradientTransform="translate(-25.449416,15.973931)" />
    <linearGradient
       inkscape:collect="always"
       xlink:href="#linearGradient3203"
       id="linearGradient3213"
       gradientUnits="userSpaceOnUse"
       x1="180"
       y1="197.86218"
       x2="217"
       y2="176.86218"
       gradientTransform="matrix(-1,0,0,1,420.64724,15.973931)" />
    <linearGradient
       inkscape:collect="always"
       xlink:href="#linearGradient3203"
       id="linearGradient3219"
       gradientUnits="userSpaceOnUse"
       gradientTransform="matrix(0,-1,1,0,10.236731,369.28965)"
       x1="180"
       y1="197.86218"
       x2="217"
       y2="176.86218" />
    <linearGradient
       inkscape:collect="always"
       xlink:href="#linearGradient3203"
       id="linearGradient3221"
       gradientUnits="userSpaceOnUse"
       gradientTransform="matrix(0,1,1,0,10.236714,-27.472495)"
       x1="180"
       y1="197.86218"
       x2="217"
       y2="176.86218" />
    <linearGradient
       inkscape:collect="always"
       xlink:href="#linearGradient3203"
       id="linearGradient3227"
       gradientUnits="userSpaceOnUse"
       gradientTransform="matrix(0,-1,1,0,10.524861,422.97401)"
       x1="180"
       y1="197.86218"
       x2="217"
       y2="176.86218" />
    <linearGradient
       inkscape:collect="always"
       xlink:href="#linearGradient3203"
       id="linearGradient3229"
       gradientUnits="userSpaceOnUse"
       gradientTransform="matrix(0,1,1,0,10.524861,-23.122654)"
       x1="180"
       y1="197.86218"
       x2="217"
       y2="176.86218" />
    <linearGradient
       inkscape:collect="always"
       xlink:href="#linearGradient3203"
       id="linearGradient3243"
       gradientUnits="userSpaceOnUse"
       gradientTransform="translate(-25.449416,15.973931)"
       x1="180"
       y1="197.86218"
       x2="217"
       y2="176.86218" />
    <linearGradient
       inkscape:collect="always"
       xlink:href="#linearGradient3203"
       id="linearGradient3245"
       gradientUnits="userSpaceOnUse"
       gradientTransform="matrix(-1,0,0,1,420.64724,15.973931)"
       x1="180"
       y1="197.86218"
       x2="217"
       y2="176.86218" />
    <linearGradient
       inkscape:collect="always"
       xlink:href="#linearGradient3203"
       id="linearGradient3247"
       gradientUnits="userSpaceOnUse"
       gradientTransform="matrix(0,-1,1,0,10.524861,422.97401)"
       x1="180"
       y1="197.86218"
       x2="217"
       y2="176.86218" />
    <linearGradient
       inkscape:collect="always"
       xlink:href="#linearGradient3203"
       id="linearGradient3249"
       gradientUnits="userSpaceOnUse"
       gradientTransform="matrix(0,1,1,0,10.524861,-23.122654)"
       x1="180"
       y1="197.86218"
       x2="217"
       y2="176.86218" />
    <linearGradient
       inkscape:collect="always"
       xlink:href="#linearGradient3203"
       id="linearGradient3252"
       gradientUnits="userSpaceOnUse"
       gradientTransform="matrix(0,0.8630386,1.0034696,0,9.5866584,6.5641771)"
       x1="217"
       y1="176.86218"
       x2="180"
       y2="197.86218" />
    <linearGradient
       inkscape:collect="always"
       xlink:href="#linearGradient3203"
       id="linearGradient3255"
       gradientUnits="userSpaceOnUse"
       gradientTransform="matrix(0,-0.8630386,1.0034696,0,9.5866584,398.28716)"
       x1="180"
       y1="176.86218"
       x2="217"
       y2="197.86218" />
    <linearGradient
       inkscape:collect="always"
       xlink:href="#linearGradient3203"
       id="linearGradient3258"
       gradientUnits="userSpaceOnUse"
       gradientTransform="matrix(-0.8630386,0,0,1.0034696,390.96039,11.913429)"
       x1="217"
       y1="197.86218"
       x2="180"
       y2="176.86218" />
    <linearGradient
       inkscape:collect="always"
       xlink:href="#linearGradient3203"
       id="linearGradient3261"
       gradientUnits="userSpaceOnUse"
       gradientTransform="matrix(0.8630386,0,0,1.0034696,-0.7625854,11.913429)"
       x1="180"
       y1="197.86218"
       x2="217"
       y2="176.86218" />
    <linearGradient
       inkscape:collect="always"
       xlink:href="#linearGradient3203"
       id="linearGradient3341"
       gradientUnits="userSpaceOnUse"
       gradientTransform="matrix(0.8630386,0,0,1.0034696,-0.7625854,11.913429)"
       x1="180"
       y1="197.86218"
       x2="217"
       y2="176.86218" />
    <linearGradient
       inkscape:collect="always"
       xlink:href="#linearGradient3203"
       id="linearGradient3343"
       gradientUnits="userSpaceOnUse"
       gradientTransform="matrix(-0.8630386,0,0,1.0034696,390.96039,11.913429)"
       x1="217"
       y1="197.86218"
       x2="180"
       y2="176.86218" />
    <linearGradient
       inkscape:collect="always"
       xlink:href="#linearGradient3203"
       id="linearGradient3345"
       gradientUnits="userSpaceOnUse"
       gradientTransform="matrix(0,-0.8630386,1.0034696,0,9.5866584,398.28716)"
       x1="180"
       y1="176.86218"
       x2="217"
       y2="197.86218" />
    <linearGradient
       inkscape:collect="always"
       xlink:href="#linearGradient3203"
       id="linearGradient3347"
       gradientUnits="userSpaceOnUse"
       gradientTransform="matrix(0,0.8630386,1.0034696,0,9.5866584,6.5641771)"
       x1="217"
       y1="176.86218"
       x2="180"
       y2="197.86218" />
    <linearGradient
       inkscape:collect="always"
       xlink:href="#linearGradient3222"
       id="linearGradient3228"
       x1="16.130047"
       y1="83.236122"
       x2="82.05352"
       y2="1.7813295"
       gradientUnits="userSpaceOnUse"
       gradientTransform="matrix(0.7354782,0,0,0.7059264,165.65445,172.14669)" />
  </defs>
  <sodipodi:namedview
     id="base"
     pagecolor="#ffffff"
     bordercolor="#666666"
     borderopacity="1.0"
     gridtolerance="10000"
     guidetolerance="10"
     objecttolerance="10"
     inkscape:pageopacity="0.0"
     inkscape:pageshadow="2"
     inkscape:zoom="5.4058986"
     inkscape:cx="13.989448"
     inkscape:cy="42.508347"
     inkscape:document-units="px"
     inkscape:current-layer="layer1"
     showgrid="false"
     inkscape:window-width="1920"
     inkscape:window-height="1022"
     inkscape:window-x="0"
     inkscape:window-y="0"
     fit-margin-top="0"
     fit-margin-left="0"
     fit-margin-right="0"
     fit-margin-bottom="0"
     inkscape:window-maximized="1" />
  <metadata
     id="metadata7">
    <rdf:RDF>
      <cc:Work
         rdf:about="">
        <dc:format>image/svg+xml</dc:format>
        <dc:type
           rdf:resource="http://purl.org/dc/dcmitype/StillImage" />
        <dc:title></dc:title>
      </cc:Work>
    </rdf:RDF>
  </metadata>
  <g
     inkscape:label="Layer 1"
     inkscape:groupmode="layer"
     id="layer1"
     transform="translate(-167.07704,-172.09822)">
    <path
       style="opacity:1;fill:url(#linearGradient3228);fill-opacity:1;stroke:#000000;stroke-width:1.20000005;stroke-linecap:butt;stroke-linejoin:round;stroke-miterlimit:4;stroke-dasharray:none;stroke-opacity:1"
       d="m 175.72132,172.6982 -8.0443,8.02991 21.32887,21.33222 -21.32887,21.35428 8.0443,8.0299 21.32886,-21.33221 21.32887,21.33221 8.04429,-8.0299 -21.32887,-21.35428 21.32887,-21.33222 -8.04429,-8.02991 -21.32887,21.33222 -21.32886,-21.33222 z"
       id="rect2426"
       inkscape:connector-curvature="0" />
  </g>
</svg>
